WPMap/assets/css/svg/icon_crown.svg

<svg width="68" height="48" viewBox="0 0 68 48" fill="none" xmlns="http://www.w3.org/2000/svg">
<path fill-rule="evenodd" clip-rule="evenodd" d="M14.96 18.6673C17.2462 23.9829 23.12 25.3318 23.12 25.3318C20.9393 15.5237 13.6 10.6654 13.6 10.6654C15.7455 17.5356 14.96 18.6673 14.96 18.6673ZM53.04 18.6673C53.04 18.6673 52.2545 17.5356 54.4 10.6654C54.4 10.6654 47.0607 15.5351 44.88 25.3318C44.88 25.3432 50.7538 23.9829 53.04 18.6673ZM65.28 10.6654C63.7793 10.6654 62.56 11.8543 62.56 13.3289C62.56 13.5461 62.5952 13.7519 62.6421 13.9576C58.9607 16.0953 53.5793 20.1077 50.32 26.6692C49.7455 26.9436 45.9 30.9331 43.52 26.6692C41.14 22.4053 34 9.32794 34 9.32794C34 9.32794 26.86 22.4053 24.48 26.6692C22.1 30.9331 18.2545 26.9436 17.68 26.6692C14.4207 20.1191 9.03932 16.0953 5.35794 13.9576C5.40484 13.7519 5.44 13.5461 5.44 13.3289C5.44 11.8543 4.2207 10.6654 2.72001 10.6654C1.21932 10.6654 0 11.8543 0 13.3289C0 14.8035 1.21932 15.9924 2.72001 15.9924C3.18897 15.9924 3.62276 15.8666 3.99794 15.6609C15.9448 33.3222 14.96 48 14.96 48H34H53.04C53.04 48 52.0552 33.3337 64.0021 15.6609C64.389 15.8666 64.8228 15.9924 65.28 15.9924C66.7807 15.9924 68 14.8035 68 13.3289C68 11.8657 66.7807 10.6654 65.28 10.6654ZM34 8.00191C36.251 8.00191 38.08 6.20719 38.08 4.00095C38.08 1.79471 36.251 0 34 0C31.749 0 29.92 1.79471 29.92 4.00095C29.92 6.20719 31.749 8.00191 34 8.00191Z" fill="black"/>
</svg>

<svg xmlns="http://www.w3.org/2000/svg" width="68" height="48" fill="none"><path fill="#000" fill-rule="evenodd" d="M14.96 18.667c2.286 5.316 8.16 6.665 8.16 6.665-2.18-9.808-9.52-14.667-9.52-14.667 2.146 6.87 1.36 8.002 1.36 8.002Zm38.08 0s-.785-1.131 1.36-8.002c0 0-7.34 4.87-9.52 14.667 0 .011 5.874-1.35 8.16-6.665Zm12.24-8.002c-1.5 0-2.72 1.19-2.72 2.664 0 .217.035.423.082.629-3.681 2.137-9.063 6.15-12.322 12.711-.575.275-4.42 4.264-6.8 0S34 9.328 34 9.328s-7.14 13.077-9.52 17.341c-2.38 4.264-6.226.275-6.8 0-3.26-6.55-8.64-10.574-12.322-12.711a2.8 2.8 0 0 0 .082-.63c0-1.474-1.22-2.663-2.72-2.663-1.5 0-2.72 1.19-2.72 2.664 0 1.474 1.22 2.663 2.72 2.663a2.65 2.65 0 0 0 1.278-.331C15.945 33.322 14.96 48 14.96 48h38.08s-.985-14.666 10.962-32.34c.387.207.82.332 1.278.332 1.5 0 2.72-1.189 2.72-2.663 0-1.463-1.22-2.664-2.72-2.664ZM34 8.002c2.251 0 4.08-1.795 4.08-4.001C38.08 1.795 36.251 0 34 0c-2.251 0-4.08 1.795-4.08 4 0 2.207 1.829 4.002 4.08 4.002Z" clip-rule="evenodd"/></svg>
